X:1
T:Title
%%score { ( 1 3 ) | ( 2 4 ) }
L:1/8
M:4/4
K:F
V:1 treble nm="Grand Piano"
V:3 treble 
V:2 bass 
V:4 bass 
V:1
 z4 z[Q:1/4=100] CFA | A6 z2 | F4 z4 | F6 z2[K:bass] | A,2 A,>A, A,[K:treble]CFA | A6 z2 | %6
[M:5/8] F- F3 z |[M:3/8] (5:4:6C-C/8 z3/8 z3/4 G3/4A3/4 |[M:4/4] A2 c2 AF [B,EG]>[CEA] | %9
[M:5/8] F-F- F3 |[M:3/8] cf>f |[M:4/4] f4 z4 | A4 z4 | [FA]4 .[FA]2 z2 |[M:5/8] z2 G3 | %15
[M:3/8] (5:4:6C-C/8 z3/8 z3/4 G3/4A3/4 |[M:4/4] A2 c2 AF [B,EG]>[CEA] | %17
[M:13/8] F-F- F3 z z z z z z z2 |] %18
V:2
 z8 | z [F,C][F,C][F,C] [F,C][F,CF][F,=B,F][F,CF] | [F,A,C]F,,[A,,A,][C,A,] [F,A,]2 z2 | %3
 z2 [B,,B,][B,,B,] [B,,B,]2 [B,,B,]>[B,,F,] | [F,,F,]2 [A,,F,]>[C,F,] .[F,,F,]2 z2 | %5
 z [F,C][F,C][F,C] [F,C][F,CF][F,=B,F][F,CF] |[M:5/8] [F,A,C]F,,[A,,A,] [C,A,][F,A,] | %7
[M:3/8] (5:4:6F,-F,/8 z3/8 z3/4 [F,B,C]3/4[K:treble][F,CF]3/4 | %8
[M:4/4] [CF]2 [FA]2[K:bass] C-[A,,C] C,>C, |[M:5/8] z2 B,>B,A, |[M:3/8] z3 | %11
[M:4/4] z2 [F,C][F,C] [F,F]2 [F,F]>[F,F] | F,2 A,,>C, F,F, (3F,F,F, | F,2 D,2 F,A,, D,>D, | %14
[M:5/8] C,2 G,,>=B,,[C,C] |[M:3/8] (5:4:6F,-F,/8 z3/8 z3/4 [F,B,C]3/4[K:treble][F,CF]3/4 | %16
[M:4/4] [CF]2 [FA]2[K:bass] C-[A,,C] C,>C, |[M:13/8] z2 B,>B, .A,2 z z z z z z2 |] %18
V:3
 x8 | z FFF FA_A=A | z [A,C]CC C2 FF | z2 DD D2 [DF]>[K:bass][B,D] | C6[K:treble] z2 | %5
 z FFF FA_A=A |[M:5/8] z [A,C]C CC |[M:3/8] z .F z |[M:4/4] x8 |[M:5/8] A,2 D>DC |[M:3/8] x3 | %11
[M:4/4] z2 AA [Ac]2 [Ac]>[Ad] | [CF]2 [CF]>[CF] [A,CF][A,C] (3[A,CF][B,CG][CFA] | %13
 c2 d2 C-[CF] [=B,DF]>[B,F] |[M:5/8] [CEG]2 E>[DF]E |[M:3/8] z .F z |[M:4/4] x8 | %17
[M:13/8] A,2 D>D .C2 z z z z z z2 |] %18
V:4
 x8 | x8 | x8 | x8 | x8 | x8 |[M:5/8] x5 |[M:3/8] A,.[F,A,C] z[K:treble] | %8
[M:4/4] F,4[K:bass] .[F,F]2 z2 |[M:5/8] F,,-F,,- F,,3 |[M:3/8] x3 |[M:4/4] x8 | x8 | x8 | %14
[M:5/8] x5 |[M:3/8] A,.[F,A,C] z[K:treble] |[M:4/4] F,4[K:bass] .[F,F]2 z2 | %17
[M:13/8] F,,-F,,- F,,3 z z z z z z z2 |] %18

